papirus/48x48/apps/acroread.svg

<svg height="48" viewBox="0 0 48 48.000001" width="48" xmlns="http://www.w3.org/2000/svg"><path d="m10 4c-1.108 0-2 .892-2 2v36c0 1.108.892 2 2 2h13.979 14.021c1.108 0 2-.892 2-2v-36c0-1.108-.892-2-2-2h-14.021z" fill="#4b281d"/><path d="m35.963756 17.999994c.351047.02141.728862 0 1.142623.286815 3.694788 1.590107 1.21681 5.952-3.492878 9.269884-.0283-.625641-.288332-1.987824-.282214-2.58746 4.018302-2.75496 6.368556-5.436496 3.807979-6.499626-2.699772-1.120493-3.538002 1.938874-3.58542 6.380311-.251621.26081-1.993855 1.418017-2.258478 1.600814.0979-4.049838 2.25083-8.183808 4.319635-8.42091.110898-.02141.231738-.02141.348753-.02141m-3.761326 7.046488l.840524-.327352.69674.469612.140725 1.477676-.880294.675354-.365579.490265c-2.710479 1.798142-5.019434 3.183271-8.058016 4.327474l-1.89443.281463h-1.246637c-1.149506-.677651-.464238-.938461-4.64009-1.459319l4.705864.364829c3.629778-1.407308 7.334509-3.428786 10.704253-5.633824m-8.282871 5.8954c-.544543 0-4.790758-.368653-6.480218-.524681-1.671871-.26081-3.725379-.338825-3.336858 1.616111-.442058-1.042479.565958-2.812323 1.999208-3.124379 2.216414-.495618 5.733001.862741 6.997229 1.279581m-2.037448.541507c.659264.260812 2.165171.448963 2.876443.68377-1.008018.521621-6.071046 2.390895-8.161267 1.999296-.334221 0-1.745291-1.014945-1.779708-1.745369.108603 1.329295 6.297428.338825 7.064532-.964466m-1.376655.02372c.54225-.260811 3.082177-.247809 3.642016-.455846 3.180071 1.112845 7.458407 3.72478 10.519934 5.486211l.887178.260812c.171316 1.216863.920828 1.635996 1.604567 2.423783l-1.036316 1.042476-.810697-1.329295c-3.584655-2.162977-10.6706-5.658305-14.803622-7.336368m14.803622 7.336363c.438236.260811.856586.521622 1.253521.781668.919299 2.608876 1.990796 4.365718 3.014108 4.289999-1.580858.755664-4.985783-2.968351-6.13376-6.471328m6.13376 6.471328c2.41144-1.433314-2.692888-4.046014-3.839335-4.803973-.257741-.729659.447412-1.938874.217205-2.79932 3.59995 2.24175 5.727647 5.483916 4.520015 7.022013-.290627.36483-.598844.547627-.904003.573631m-3.50282-5.460971c-.167494-.671532-2.39079-2.199686-2.792315-2.434492-.537659-4.23493-.563663-4.653298-1.020254-7.945177.273037-.260812 1.954849-1.57175 2.214884-1.753783.32275 3.518273.930007 8.286298 1.788887 11.471098" fill="#ff3434"/><path d="m10 4c-1.108 0-2 .892-2 2v36c0 1.108.892 2 2 2h3.9785v-40z" opacity=".2"/><path d="m15 4c-1 0-1 1-1 1v16.5l2.5-1.5 2.5 1.5v-16.5c0-1-1-1-1-1z" opacity=".2"/><path d="m14 4v16.5l2.5-1.5 2.5 1.5v-16.5z" fill="#ff3434"/><path d="m10 4c-1.108 0-2 .892-2 2v1c0-1.108.892-2 2-2h13.979 14.021c1.108 0 2 .892 2 2v-1c0-1.108-.892-2-2-2h-14.021z" fill="#fff" opacity=".1"/><path d="m8 41v1c0 1.108.892 2 2 2h13.979 14.021c1.108 0 2-.892 2-2v-1c0 1.108-.892 2-2 2h-14.021-13.979c-1.108 0-2-.892-2-2z" opacity=".3"/></svg>

<?xml version="1.0" encoding="UTF-8" standalone="no"?>
<!-- Created with Inkscape (http://www.inkscape.org/) -->

<svg
   xmlns:dc="http://purl.org/dc/elements/1.1/"
   xmlns:cc="http://creativecommons.org/ns#"
   xmlns:rdf="http://www.w3.org/1999/02/22-rdf-syntax-ns#"
   xmlns:svg="http://www.w3.org/2000/svg"
   xmlns="http://www.w3.org/2000/svg"
   xmlns:sodipodi="http://sodipodi.sourceforge.net/DTD/sodipodi-0.dtd"
   xmlns:inkscape="http://www.inkscape.org/namespaces/inkscape"
   id="svg4211"
   height="48"
   width="48"
   version="1.1"
   viewBox="0 0 48 48.000001"
   inkscape:version="0.91 r13725"
   sodipodi:docname="acroread.svg">
  <defs
     id="defs13" />
  <sodipodi:namedview
     pagecolor="#ffffff"
     bordercolor="#666666"
     borderopacity="1"
     objecttolerance="10"
     gridtolerance="10"
     guidetolerance="10"
     inkscape:pageopacity="0"
     inkscape:pageshadow="2"
     inkscape:window-width="1600"
     inkscape:window-height="849"
     id="namedview11"
     showgrid="false"
     inkscape:zoom="8.08"
     inkscape:cx="-1.2475248"
     inkscape:cy="24"
     inkscape:window-x="0"
     inkscape:window-y="0"
     inkscape:window-maximized="1"
     inkscape:current-layer="svg4211" />
  <metadata
     id="metadata4216">
    <rdf:RDF>
      <cc:Work
         rdf:about="">
        <dc:format>image/svg+xml</dc:format>
        <dc:type
           rdf:resource="http://purl.org/dc/dcmitype/StillImage" />
        <dc:title />
      </cc:Work>
    </rdf:RDF>
  </metadata>
  <path
     style="fill:#4b281d;fill-opacity:1"
     inkscape:connector-curvature="0"
     d="M 10,4 C 8.892,4 8,4.892 8,6 l 0,36 c 0,1.108 0.892,2 2,2 L 23.979,44 38,44 c 1.108,0 2,-0.892 2,-2 L 40,6 C 40,4.892 39.108,4 38,4 L 23.979,4 10,4 Z"
     id="path8375" />
  <path
     inkscape:connector-curvature="0"
     style="fill:#ff3434;fill-opacity:1"
     id="path35"
     d="m 35.963756,17.999994 c 0.351047,0.02141 0.728862,0 1.142623,0.286815 3.694788,1.590107 1.21681,5.952 -3.492878,9.269884 -0.0283,-0.625641 -0.288332,-1.987824 -0.282214,-2.58746 4.018302,-2.75496 6.368556,-5.436496 3.807979,-6.499626 -2.699772,-1.120493 -3.538002,1.938874 -3.58542,6.380311 -0.251621,0.26081 -1.993855,1.418017 -2.258478,1.600814 0.0979,-4.049838 2.25083,-8.183808 4.319635,-8.42091 0.110898,-0.02141 0.231738,-0.02141 0.348753,-0.02141 m -3.761326,7.046488 0.840524,-0.327352 0.69674,0.469612 0.140725,1.477676 -0.880294,0.675354 -0.365579,0.490265 c -2.710479,1.798142 -5.019434,3.183271 -8.058016,4.327474 l -1.89443,0.281463 -1.246637,0 c -1.149506,-0.677651 -0.464238,-0.938461 -4.64009,-1.459319 l 4.705864,0.364829 c 3.629778,-1.407308 7.334509,-3.428786 10.704253,-5.633824 m -8.282871,5.8954 c -0.544543,0 -4.790758,-0.368653 -6.480218,-0.524681 -1.671871,-0.26081 -3.725379,-0.338825 -3.336858,1.616111 -0.442058,-1.042479 0.565958,-2.812323 1.999208,-3.124379 2.216414,-0.495618 5.733001,0.862741 6.997229,1.279581 m -2.037448,0.541507 c 0.659264,0.260812 2.165171,0.448963 2.876443,0.68377 -1.008018,0.521621 -6.071046,2.390895 -8.161267,1.999296 -0.334221,0 -1.745291,-1.014945 -1.779708,-1.745369 0.108603,1.329295 6.297428,0.338825 7.064532,-0.964466 m -1.376655,0.02372 c 0.54225,-0.260811 3.082177,-0.247809 3.642016,-0.455846 3.180071,1.112845 7.458407,3.72478 10.519934,5.486211 l 0.887178,0.260812 c 0.171316,1.216863 0.920828,1.635996 1.604567,2.423783 l -1.036316,1.042476 -0.810697,-1.329295 c -3.584655,-2.162977 -10.6706,-5.658305 -14.803622,-7.336368 m 14.803622,7.336363 c 0.438236,0.260811 0.856586,0.521622 1.253521,0.781668 0.919299,2.608876 1.990796,4.365718 3.014108,4.289999 -1.580858,0.755664 -4.985783,-2.968351 -6.13376,-6.471328 m 6.13376,6.471328 c 2.41144,-1.433314 -2.692888,-4.046014 -3.839335,-4.803973 -0.257741,-0.729659 0.447412,-1.938874 0.217205,-2.79932 3.59995,2.24175 5.727647,5.483916 4.520015,7.022013 -0.290627,0.36483 -0.598844,0.547627 -0.904003,0.573631 m -3.50282,-5.460971 c -0.167494,-0.671532 -2.39079,-2.199686 -2.792315,-2.434492 -0.537659,-4.23493 -0.563663,-4.653298 -1.020254,-7.945177 0.273037,-0.260812 1.954849,-1.57175 2.214884,-1.753783 0.32275,3.518273 0.930007,8.286298 1.788887,11.471098" />
  <path
     style="opacity:0.2"
     inkscape:connector-curvature="0"
     d="M 10,4 C 8.892,4 8,4.892 8,6 l 0,36 c 0,1.108 0.892,2 2,2 l 3.9785,0 0,-40 L 10,4 Z"
     id="path4229" />
  <path
     inkscape:connector-curvature="0"
     d="M 15,4 C 14,4 14,5 14,5 L 14,21.5 16.5,20 19,21.5 19,5 C 19,4 18,4 18,4 Z"
     style="opacity:0.2;enable-background:new"
     id="path4452" />
  <path
     inkscape:connector-curvature="0"
     d="M 14,4 14,20.5 16.5,19 19,20.5 19,4 14,4 Z"
     style="fill:#ff3434;fill-opacity:1;enable-background:new"
     id="path5078-2" />
  <path
     style="opacity:0.1;fill:#ffffff"
     inkscape:connector-curvature="0"
     d="M 10,4 C 8.892,4 8,4.892 8,6 L 8,7 C 8,5.892 8.892,5 10,5 L 23.979,5 38,5 c 1.108,0 2,0.892 2,2 L 40,6 C 40,4.892 39.108,4 38,4 L 23.979,4 10,4 Z"
     id="path4374" />
  <path
     style="opacity:0.3"
     inkscape:connector-curvature="0"
     d="m 8,41 0,1 c 0,1.108 0.892,2 2,2 L 23.979,44 38,44 c 1.108,0 2,-0.892 2,-2 l 0,-1 c 0,1.108 -0.892,2 -2,2 L 23.979,43 10,43 C 8.892,43 8,42.108 8,41 Z"
     id="path4795" />
</svg>
